X: 1
T: Rural Felicity
T: Cathleen / Kathleen Hehir's
T: Hehir's
M: 12/8
L: 1/8
R: slide
K: D Major
|: dcd e2 d c2 E EFG | B2 B BAG F2 D D2 A | 
dcd e2 d c2E EFG | ABA GFE D3 D3 :|
|: F2 A d3 c2 B G3 | ABA G2 E B2 A F3 | 
F2 A d3 c2 B G2 F | EFG ABc d3 d3 :|
